svgs/regular/computer.svg

<svg xmlns="http://www.w3.org/2000/svg" viewBox="0 0 640 512"><!--! Font Awesome Pro 6.6.0 by @fontawesome - https://fontawesome.com License - https://fontawesome.com/license (Commercial License) Copyright 2024 Fonticons, Inc. --><path d="M384 80c8.8 0 16 7.2 16 16l0 224c0 8.8-7.2 16-16 16l-102.7 0L264 336l-80 0-17.3 0L64 336c-8.8 0-16-7.2-16-16L48 96c0-8.8 7.2-16 16-16l320 0zM64 384l86.7 0-16 48L88 432c-13.3 0-24 10.7-24 24s10.7 24 24 24l30.7 0 33.3 0 144 0 33.3 0 30.7 0c13.3 0 24-10.7 24-24s-10.7-24-24-24l-46.7 0-16-48 86.7 0c35.3 0 64-28.7 64-64l0-224c0-35.3-28.7-64-64-64L64 32C28.7 32 0 60.7 0 96L0 320c0 35.3 28.7 64 64 64zm121.3 48l16-48 45.4 0 16 48-77.4 0zM528 80l64 0 0 32-64 0 0-32zm0 80l64 0 0 32-64 0 0-32zm64 80l0 192-64 0 0-192 64 0zM480 80l0 352c0 26.5 21.5 48 48 48l64 0c26.5 0 48-21.5 48-48l0-352c0-26.5-21.5-48-48-48l-64 0c-26.5 0-48 21.5-48 48zm80 280a24 24 0 1 0 0-48 24 24 0 1 0 0 48z"/></svg>

<svg xmlns="http://www.w3.org/2000/svg" viewBox="0 0 640 512"><!--! Font Awesome Pro 6.4.0 by @fontawesome - https://fontawesome.com License - https://fontawesome.com/license (Commercial License) Copyright 2023 Fonticons, Inc. --><path d="M384 80c8.8 0 16 7.2 16 16V320c0 8.8-7.2 16-16 16H281.3 264 184 166.7 64c-8.8 0-16-7.2-16-16V96c0-8.8 7.2-16 16-16H384zM64 384h86.7l-16 48H88c-13.3 0-24 10.7-24 24s10.7 24 24 24h30.7H152 296h33.3H360c13.3 0 24-10.7 24-24s-10.7-24-24-24H313.3l-16-48H384c35.3 0 64-28.7 64-64V96c0-35.3-28.7-64-64-64H64C28.7 32 0 60.7 0 96V320c0 35.3 28.7 64 64 64zm121.3 48l16-48h45.4l16 48H185.3zM528 80h64v32H528V80zm0 80h64v32H528V160zm64 80V432H528V240h64zM480 80V432c0 26.5 21.5 48 48 48h64c26.5 0 48-21.5 48-48V80c0-26.5-21.5-48-48-48H528c-26.5 0-48 21.5-48 48zm80 280a24 24 0 1 0 0-48 24 24 0 1 0 0 48z"/></svg>
